build/img/footer/puddle.svg

<svg width="241" height="158" viewBox="0 0 241 158" fill="none" xmlns="http://www.w3.org/2000/svg">
<path d="M-83.9252 15.3157C-62.242 7.85445 -40.0949 0.314423 -17.16 0.00827401C5.775 -0.297875 30.0493 7.88069 43.5389 26.4158C51.6624 37.5859 55.3653 51.6513 64.3729 62.1304C74.5186 73.9303 90.0566 79.6246 105.262 82.9485C131.436 88.7304 167.563 88.8878 173.778 121.068C176.01 132.615 175.861 145.079 181.954 155.182C185.515 161.001 190.892 165.488 197.256 167.953C203.313 170.28 209.966 170.656 216.129 172.694C221.869 174.654 227.04 177.992 231.188 182.415C235.337 186.838 238.335 192.21 239.922 198.061C242.452 207.726 240.438 221.844 234.844 230.259C228.603 239.662 211.664 236.119 200.407 236.382C168.893 237.169 137.38 237.752 105.866 238.131C43.4951 238.945 -18.8757 239.093 -81.2465 238.953C-82.6355 213.738 -84.0244 188.518 -85.4134 163.291C-86.7965 138.178 -88.2058 112.881 -94.3948 88.503C-99.9447 66.7576 -96.7058 33.7984 -83.9252 15.3157Z" fill="#E8EBCB" fill-opacity="0.04"/>
</svg>

<svg width="241" height="158" fill="none" xmlns="http://www.w3.org/2000/svg"><path d="M-83.925 15.316C-62.242 7.854-40.095.314-17.16.008 5.775-.298 30.05 7.881 43.539 26.416c8.123 11.17 11.826 25.235 20.834 35.714 10.146 11.8 25.684 17.495 40.889 20.818 26.174 5.782 62.301 5.94 68.516 38.12 2.232 11.547 2.083 24.011 8.176 34.114a31.114 31.114 0 0 0 15.302 12.771c6.057 2.327 12.71 2.703 18.873 4.741a37.066 37.066 0 0 1 23.793 25.367c2.53 9.665.516 23.783-5.078 32.198-6.241 9.403-23.18 5.86-34.437 6.123-31.514.787-63.027 1.37-94.541 1.749-62.37.814-124.742.962-187.113.822l-4.166-75.662c-1.383-25.113-2.793-50.41-8.982-74.788-5.55-21.745-2.31-54.705 10.47-73.187Z" fill="#E8EBCB" fill-opacity=".04"/></svg>
